X: 38051
T: Spindle Shank, The
R: reel
M: 4/4
K: Gmajor
d2ge dBAG|FDAD BDAD|~G3E DGBG|FAdc BGGd:|
|:gedB cAAg|fdad bdad|gedB cAAc|dega bggf:|

